public/library/sei-icon-light.svg

<?xml version="1.0" encoding="UTF-8" standalone="no"?>
<svg
   width="37.4706"
   height="37.566101"
   viewBox="0 0 37.4706 37.566101"
   fill="none"
   version="1.1"
   id="svg4"
   xmlns="http://www.w3.org/2000/svg"
   xmlns:svg="http://www.w3.org/2000/svg">
  <defs
     id="defs4" />
  <path
     fill-rule="evenodd"
     clip-rule="evenodd"
     d="m 18.6876,37.5661 c 5.5657,0 10.5661,-2.4208 14.0056,-6.2669 -1.6,-1.3905 -4.0112,-1.475 -5.7145,-0.1006 l -0.3254,0.2626 c -3.1187,2.5165 -7.6631,2.1449 -10.3315,-0.8449 -1.4554,-1.6306 -3.9479,-1.7971 -5.6072,-0.3746 l -3.75177,3.2165 c 3.21337,2.5707 7.28957,4.1079 11.72477,4.1079 z m 6.09,-9.0953 c 2.9705,-2.397 7.1458,-2.311 10.0028,0.004 1.7077,-2.8295 2.6902,-6.1459 2.6902,-9.6917 0,-3.9401 -1.2131,-7.5968 -3.2862,-10.61696 -1.3365,-0.28462 -2.7851,0.0478 -3.8847,1.02224 l -0.313,0.27734 C 26.9874,12.1235 22.4308,11.962 19.6272,9.09858 18.0982,7.53685 15.6006,7.48557 14.0087,8.98321 L 9.64272,13.0907 7.24092,10.5378 11.6069,6.43026 c 2.982,-2.80546 7.6606,-2.70939 10.5249,0.21612 1.4966,1.52859 3.9291,1.6148 5.5302,0.19598 L 27.975,6.56503 C 28.9469,5.70377 30.0713,5.12316 31.2487,4.81779 27.9209,1.82273 23.5171,0 18.6876,0 9.15256,0 1.27697,7.10479 0.0659628,16.3092 2.96213,14.9194 6.53455,15.4542 8.89592,17.8724 c 1.49078,1.5266 3.89118,1.6877 5.57258,0.3741 l 2.4411,-1.9071 c 3.068,-2.3968 7.4048,-2.2808 10.3402,0.2766 l 4.7526,4.1407 -2.3025,2.6428 -4.7526,-4.1406 c -1.6691,-1.4543 -4.1352,-1.5203 -5.8797,-0.1574 l -2.4411,1.9072 C 13.5372,23.4221 9.12707,23.1261 6.38814,20.3213 4.79547,18.6903 2.19063,18.6334 0.528257,20.1933 L 0,20.689 c 0.395333,3.923 1.99788,7.4899 4.43052,10.3233 l 4.00269,-3.4316 c 3.10829,-2.6649 7.77739,-2.353 10.50369,0.7016 1.4245,1.5961 3.8504,1.7944 5.5152,0.451 z"
     fill="#0b2632"
     id="path1" />
</svg>

<svg xmlns="http://www.w3.org/2000/svg" width="37.471" height="37.566" fill="none" viewBox="0 0 37.471 37.566"><path fill="#0b2632" fill-rule="evenodd" d="M18.688 37.566c5.565 0 10.566-2.42 14.005-6.267a4.455 4.455 0 0 0-5.714-.1l-.326.262a7.52 7.52 0 0 1-10.331-.845 4.014 4.014 0 0 0-5.607-.374l-3.752 3.216a18.7 18.7 0 0 0 11.725 4.108m6.09-9.095a7.96 7.96 0 0 1 10.002.004 18.7 18.7 0 0 0 2.69-9.692c0-3.94-1.213-7.597-3.286-10.617A4.45 4.45 0 0 0 30.3 9.188l-.313.278a7.52 7.52 0 0 1-10.36-.367 4.014 4.014 0 0 0-5.618-.116l-4.366 4.108-2.402-2.553 4.366-4.108a7.52 7.52 0 0 1 10.525.216 4.014 4.014 0 0 0 5.53.196l.313-.277a7.9 7.9 0 0 1 3.274-1.747A18.71 18.71 0 0 0 18.688 0C9.153 0 1.277 7.105.066 16.31a7.695 7.695 0 0 1 8.83 1.562 4.186 4.186 0 0 0 5.573.374l2.44-1.907a8.126 8.126 0 0 1 10.34.277l4.753 4.14L29.7 23.4l-4.753-4.14a4.62 4.62 0 0 0-5.88-.158l-2.44 1.908a7.69 7.69 0 0 1-10.239-.688 4.186 4.186 0 0 0-5.86-.128L0 20.69a18.7 18.7 0 0 0 4.43 10.323l4.003-3.431a7.52 7.52 0 0 1 10.504.701 4.014 4.014 0 0 0 5.515.451z" clip-rule="evenodd"/></svg>
